X:1
T:What a Friend we have in Jesus
T:What a Friend we have in Jesus
T:Converse
C:Converse
%%score 1 2 3
L:1/8
M:4/4
K:F
V:1 treble nm="Flute" snm="Fl."
V:2 treble transpose=-2 nm="B♭ Clarinet" snm="B♭ Cl."
V:3 treble transpose=-2 nm="B♭ Clarinet" snm="B♭ Cl."
V:1
 c3 c dcAF | F4 D4 | C3 F AFcA | G6 z2 | c3 c dcAF | F4 D4 | C3 F AGFE | F6 z2 | G3 ^F GABG | %9
 A4 c4 | d3 d cABA | G6 z2 | c3 c dcAF | F4 D4 | C3 F AGFE | F6 z2 |] %16
V:2
[K:G] G3 G GGGD | E4 C4 | B,3 D DDGG | F6 z2 | G3 G GGGD | E4 C4 | B,3 D GDDD | D6 z2 | %8
 F3 ^E FGAF | G4 G4 | G3 G GGAG | F6 z2 | G3 G GGGD | E4 C4 | B,3 D GDDD | D6 z2 |] %16
V:3
[K:G] B,3 B, CB,DB, | C4 G,4 | G,3 B, B,B,B,D | D6 z2 | B,3 B, CB,DB, | C4 G,4 | G,3 B, DCB,A, | %7
 B,6 z2 | D3 D DDDD | D4 B,4 | C3 C B,G,F,G, | D6 z2 | B,3 B, CB,DB, | C4 G,4 | G,3 B, DCB,A, | %15
 B,6 z2 |] %16

